svg/fluentui-system-icons/ic_fluent_table_simple_checkmark_24_filled.svg

<svg width="24" height="24" viewBox="0 0 24 24" fill="none" xmlns="http://www.w3.org/2000/svg">
<path d="M11.25 12.75V21H6.25C4.45508 21 3 19.5449 3 17.75V12.75H11.25ZM12.75 21V12.75H21V17.75C21 19.5449 19.5449 21 17.75 21H12.75ZM12.75 3V11.25H21V6.25C21 4.45507 19.5449 3 17.75 3H12.75ZM11.25 3V11.25H3V6.25C3 4.45508 4.45507 3 6.25 3H11.25ZM18.7832 16.2803C19.0761 15.9874 19.0761 15.5126 18.7832 15.2197C18.4903 14.9268 18.0155 14.9268 17.7226 15.2197L16.25 16.6923L15.7803 16.2226C15.4874 15.9297 15.0126 15.9297 14.7197 16.2226C14.4268 16.5155 14.4268 16.9903 14.7197 17.2832L15.7197 18.2832C16.0126 18.5761 16.4874 18.5761 16.7803 18.2832L18.7832 16.2803Z" fill="#212121"/>
</svg>

<svg xmlns="http://www.w3.org/2000/svg" width="24" height="24"><path d="M11.25 12.75V21h-5A3.25 3.25 0 0 1 3 17.75v-5h8.25Zm1.5 8.25v-8.25H21v5A3.25 3.25 0 0 1 17.75 21h-5Zm0-18v8.25H21v-5A3.25 3.25 0 0 0 17.75 3h-5Zm-1.5 0v8.25H3v-5A3.25 3.25 0 0 1 6.25 3h5Zm7.533 13.28a.75.75 0 1 0-1.06-1.06l-1.473 1.472-.47-.47a.75.75 0 1 0-1.06 1.061l1 1a.75.75 0 0 0 1.06 0l2.003-2.003Z"/></svg>
